X:103
T:&quot;The Pretty Maid Milking Her Cow&quot;  (2nd Setting)
S:O'Neill's Music Of Ireland (The 1850)
Q:1/4=70
M:3/4
L:1/8
K:C
&quot;_vb&quot;(AB)|(c2e2c2)|(B2d2B2)|(A2G4-|G4)(AB)|(c2e2c2)|(B2d2B2)|A6-|A4(AB)|
c2e2c2|B2g2B2|A2G4-|G4(e3/2d/2)|(c2B2A2)|(E2^F2^G2)|A6-|A4||
G2|c3(de^f)|(g2e2c2)|(B2G4-|G4)G2|c3(de^f)|{a}g2 e2^g2|a6-|a4(ba)|
g3(fed)|B2g2B2|A2G4-|G4(ed)|c3(BAG)|(E2^F2^G2)|A6-|A4|]
